X:1
T:Title
%%score { ( 1 3 ) | ( 2 4 ) }
L:1/8
Q:1/4=100
M:4/4
K:Bb
V:1 treble nm="Grand Piano"
V:3 treble 
V:2 bass 
V:4 bass 
V:1
 [DF]2 [DF]2 [_DG]2 [DG]2 | [DF]2 [DB]2 [Fd]4 | cccc d2 c2 | [DB]4 [DF]4 | %4
w: May~Agnew~Stephens * * *||||
 [DF]2 [DF]2 [_DG]2 [DG]2 | [DF]2 [DB]2 [Fd]4 | [Fc][Fc][Fc][Fd] [=Ec][EB][EA][EG] | F6 z2 | %8
w: ||||
[M:19/16] c/-c/-c/-c/-c/-c-<cc=Bcdc |[M:4/4] B4[K:bass] F4 | [DB]3 [DB] [=EB][EG][EA][EB] | c6 z2 | %12
w: ||||
 [Fd]3 [Fd] [Ge][Fd][Ec][FB] | [Ec]4 [Ge]4 | AAAB cBdc | [DB]6 z2 |] %16
w: ||||
V:2
 [B,,F,]2 [B,,F,]2 [B,,=E,]2 [B,,E,]2 | [B,,F,]2 [B,,F,]2 [B,,B,]4 | %2
 [F,A,E][F,A,E][F,A,E][F,A,E] [F,B,F]2 [F,A,E]2 | [B,,B,]4 [B,,B,]4 | %4
 [B,,B,]2 [B,,B,]2 [B,,=E,]2 [B,,E,]2 | [B,,B,]2 [B,,F,]2 [B,,B,]4 | %6
 [C,A,][C,A,][C,A,][C,A,] [C,G,][C,C][C,C][C,B,] | [A,C]2 z2 z4 | %8
[M:19/16] [F,A,E]/-[F,A,E]/-[F,A,E]/-[F,A,E]/-[F,A,E]/-[F,A,E]-<[F,A,E][F,A,E][F,_A,D][F,=A,E][F,B,F][F,A,E] | %9
[M:4/4] B,,2 B,,2 B,,2 B,,2 | [G,,G,]3 [G,,G,] [C,G,][C,B,][C,A,][C,G,] | E4 z4 | %12
 [B,,B,]3 [B,,B,] [B,,B,][B,,B,][C,A,][D,F,] | [E,G,]4 [E,C]4 | %14
 [F,CE][F,CE][F,CE][F,B,D] [F,A,E][F,D][F,B,F][F,A,E] | [B,,B,]6 z2 |] %16
V:3
 x8 | x8 | x8 | x8 | x8 | x8 | x8 | z2 D2 E2 z2 |[M:19/16] x19/2 | %9
[M:4/4] [B,D]2[K:bass] [B,D]2 [F,D]2 [F,D]2 | x8 | z4 F2 z2 | x8 | x8 | x8 | x8 |] %16
V:4
 x8 | x8 | x8 | x8 | x8 | x8 | x8 | F,2- [F,-B,]2 [F,C]2 z2 |[M:19/16] x19/2 |[M:4/4] x8 | x8 | %11
 [F,A,]6 z2 | x8 | x8 | x8 | x8 |] %16

